!!!!SEGMENT: pl-kk--kk-i-7--064_asola-giovanni-matteo--ecce-sacerdos-magnus.krn
!!!cenid: 16xx:903
!!!COM: Asola, Giovanni Matteo
!!!COM-rismid: pe20000387
!!!CDT: <=1532-1609/10/01
!!!CNT: Italian
!!!OTL: Ecce sacerdos magnus
!!!PDT:
!!!AGN: Sacred
!!!SMS-siglum: PL-Kk
!!!SMS-shelfmark: Kk.I.7
!!!SMS-shelfwork: 064 W
!!!SMS-variant:
!!!SMS-altvar:
!!!NIFC-rismid: 300258141
!!!URL-scan: http://repozytorium.nifc.pl/skany/pl-kk-nut--i-7
!!!ONB-nifc: UWAGA: C (skan 0061, s.114-115), A (0147, s.114-115), T(0224, s.110-111), B(0311 s.108-109). Następny utwór: Iste sanctus
!!!key:
**kern	**text	**kern	**text	**kern	**text	**kern	**text
*part4	*part4	*part3	*part3	*part2	*part2	*part1	*part1
*staff4	*staff4	*staff3	*staff3	*staff2	*staff2	*staff1	*staff1
*Ibass	*	*Itenor	*	*Ialto	*	*Isoprn	*
*I"[BASSVS.]	*	*I"[TENOR.]	*	*I"[ALTVS.]	*	*I"[CANTVS.]	*
*I'[B]	*	*I'[T]	*	*I'[A]	*	*I'[C]	*
*clefF3	*	*clefC3	*	*clefC3	*	*clefC2	*
*k[]	*	*k[]	*	*k[]	*	*k[]	*
*C:	*	*C:	*	*C:	*	*C:	*
*M2/1	*	*M2/1	*	*M2/1	*	*M2/1	*
*met(C|)	*	*met(C|)	*	*met(C|)	*	*met(C|)	*
=1-	=1-	=1-	=1-	=1-	=1-	=1-	=1-
!!LO:TX:t=P:problem:all\right:global
!	!	!	!	!LO:TX:t=P:problem=kreska pseudotaktowa	!	!	!
!LO:TX:t=P:problem=przed kluczem inicjał E	!	!LO:TX:t=P:problem=przed kluczem inicjał E	!	!LO:TX:t=P:problem=przed kluczem inicjał E	!	!LO:TX:t=P:problem=przed kluczem inicjał E	!
0r	.	1G	Ec-	0r	.	0g	Ec-
.	.	2B/	-ce	.	.	.	.
!	!	!LO:TX:t=P:problem=kreska pseudotaktowa	!	!	!	!	!
.	.	2c/	Sa-	.	.	.	.
=2-	=2-	=2-	=2-	=2-	=2-	=2-	=2-
!	!	!	!	!	!	!LO:TX:t=P:problem=kreska pseudotaktowa	!
0r	.	1d	-cer-	1G	Ec-	0g	-ce
.	.	2G,</	-dos	2B/	-ce	.	.
!	!	!LO:TX:t=P:problem=oddech ołówkiem	!	!LO:TX:t=P:problem=kreska pseudotaktowa	!	!	!
.	.	1g\	ma-	2c/	Sa-	.	.
=3-	=3-	=3-	=3-	=3-	=3-	=3-	=3-
0r	.	.	.	1d	-cer-	0r	.
*	*	*2\right	*	*	*	*	*
!	!	!LO:TX:t=P:problem=kreska pseudotaktowa	!	!	!	!	!
.	.	2f\	.	.	.	.	.
.	.	2g,<,\	-gnus	2G/	-dos	.	.
!	!	!LO:TX:t=P:problem=oddech ołówkiem	!	!	!	!	!
*	*	*	*ij	*	*	*	*
.	.	2e,\	Ec-	1g\	ma-	.	.
=4-	=4-	=4-	=4-	=4-	=4-	=4-	=4-
!LO:TX:t=P:problem=kreska pseudotaktowa	!	!	!	!	!	!	!
1r	.	2c\	-ce	.	.	0r	.
*	*	*	*	*2\right	*	*	*
!	!	!LO:TX:t=P:problem=kreska pseudotaktowa	!	!LO:TX:t=P:problem=kreska pseudotaktowa	!	!	!
.	.	2d\	Sa-	2f\	.	.	.
!LO:TX:t=P:problem=oddech ołówkiem	!	!	!	!	!	!	!
1G,	Ec-	2e\	-cer-	1g	-gnus	.	.
.	.	4d\	.	.	.	.	.
!	!	!LO:TX:t=P:problem=oddech ołówkiem	!	!	!	!	!
.	.	4c,/	.	.	.	.	.
=5-	=5-	=5-	=5-	=5-	=5-	=5-	=5-
*2\right	*	*	*	*	*	*	*
!	!	!	!	!LO:TX:t=P:problem=kreska pseudotaktowa	!	!	!
2Bn\	-ce	2d\	-dos	1r	.	0g	Ec-
!	!	!LO:TX:t=P:problem=kreska pseudotaktowa	!	!	!	!	!
2c\	Sa-	2e\	.	.	.	.	.
*	*	*	*	*	*ij	*	*
!LO:TX:t=P:problem=oddech ołówkiem	!	!	!	!	!	!	!
!LO:TX:t=P:problem=kreska pseudotaktowa	!	!	!	!	!	!	!
1d,	-cer-	2.B/	ma-	1G	Ec-	.	.
!	!	!LO:TX:t=P:problem=oddech ołówkiem	!	!	!	!	!
.	.	4c,/	.	.	.	.	.
=6-	=6-	=6-	=6-	=6-	=6-	=6-	=6-
!	!	!	!	!	!	!LO:TX:t=P:problem=kreska pseudotaktowa	!
2G,<\	-dos	2d\	.	2B/	-ce	0g	-ce
!	!	!	!	!LO:TX:t=P:problem=kreska pseudotaktowa	!	!	!
1c	ma-	2c/	.	2c/	Sa-	.	.
!	!	!LO:TX:t=P:problem=oddech ołówkiem	!	!	!	!	!
!	!	!LO:TX:t=P:problem=kreska pseudotaktowa	!	!	!	!	!
.	.	1G	-gnus	1d	-cer-	.	.
*	*	*	*Xij	*	*	*	*
!LO:TX:t=P:problem=oddech ołówkiem	!	!	!	!	!	!	!
!LO:TX:t=P:problem=kreska pseudotaktowa	!	!	!	!	!	!	!
2B,\	.	.	.	.	.	.	.
=7-	=7-	=7-	=7-	=7-	=7-	=7-	=7-
2c,<\	-gnus	2r	.	2c/	.	1e	Sa-
*	*ij	*	*	*	*	*	*
1C	Ec-	1c	Ec-	1e	.	.	.
.	.	.	.	.	.	1g	-cer-
!LO:TX:t=P:problem=oddech ołówkiem	!	!LO:TX:t=P:problem=oddech ołówkiem	!	!	!	!	!
!LO:TX:t=P:problem=kreska pseudotaktowa	!	!LO:TX:t=P:problem=kreska pseudotaktowa	!	!LO:TX:t=P:problem=kreska pseudotaktowa	!	!	!
2C,/	-ce	2c,/	-ce	2e\	-dos	.	.
=8-	=8-	=8-	=8-	=8-	=8-	=8-	=8-
!	!	!	!	!	!	!LO:TX:t=P:problem=kreska pseudotaktowa	!
1F	Sa-	1A	Sa-	1f	ma-	1a	-dos
2.G\	-cer-	2.B/	-cer	2e\	.	0g	ma-
.	.	.	.	2.d\	.	.	.
!LO:TX:t=P:problem=oddech ołówkiem	!	!	!	!	!	!	!
!LO:TX:t=P:problem=kreska pseudotaktowa	!	!LO:TX:t=P:problem=oddech ołówkiem	!	!	!	!	!
4A,\	-dos	4c,/	dos	.	.	.	.
=9-	=9-	=9-	=9-	=9-	=9-	=9-	=9-
2B\	ma-	2d\	ma-	.	.	.	.
.	.	.	.	4c/	.	.	.
!	!	!LO:TX:t=P:problem=kreska pseudotaktowa	!	!	!	!	!
2c\	.	2e\	.	1c	.	.	.
!LO:TX:t=P:problem=oddech ołówkiem	!	!LO:TX:t=P:problem=oddech ołówkiem	!	!	!	!LO:TX:t=P:problem=kreska pseudotaktowa	!
1G,	.	1d,	.	.	.	0g	-gnus
!	!	!	!	!LO:TX:t=P:problem=kreska pseudotaktowa	!	!	!
.	.	.	.	2B/	.	.	.
=10-	=10-	=10-	=10-	=10-	=10-	=10-	=10-
!LO:TX:t=P:problem=kreska pseudotaktowa	!	!	!	!	!	!	!
1C	-gnus	2e,\	-gn(us)	2c,</	-gnus	.	.
*	*Xij	*	*ij	*	*Xij	*	*
*	*	*custos:e	*	*	*	*	*
!	!	!	!	!LO:TX:t=P:problem=kreska pseudotaktowa	!	!	!
!	!	!LO:TX:t=P:problem=kreska pseudotaktowa	!	!	!	!	!
.	.	2c/	Ec-	2G/	Ec-	.	.
!LO:TX:t=P:problem=oddech ołówkiem	!	!LO:LB:g=original	!	!	!	!	!
1r	.	2e\	-ce	2c/	-ce	1r	.
!	!	!LO:TX:t=P:problem=oddech ołówkiem	!	!	!	!	!
!	!	!LO:TX:t=P:problem=kreska pseudotaktowa	!	!	!	!	!
.	.	2f,\	Sa-	2d\	Sa-	.	.
=11-	=11-	=11-	=11-	=11-	=11-	=11-	=11-
*	*	*	*	*	*	*	*ij
2r	.	2g\	-cer-	1e	-cer-	1c	Ec-
2c\	Ec-	2.e\	-dos	.	.	.	.
*	*	*	*	*custos:d	*	*	*
!	!	!	!	!LO:TX:t=P:problem=kreska pseudotaktowa	!	!	!
2A,<\	-ce	.	.	1c	-dos	2e/	-ce
.	.	4d\	.	.	.	.	.
*	*	*	*	*	*	*2\right	*
!LO:TX:t=P:problem=oddech ołówkiem	!	!	!	!	!	!	!
!LO:TX:t=P:problem=kreska pseudotaktowa	!	!	!	!	!	!LO:TX:t=P:problem=kreska pseudotaktowa	!
2A,\	Sa-	1c\	ma-	.	.	2f\	Sa-
=12-	=12-	=12-	=12-	=12-	=12-	=12-	=12-
!	!	!	!	!LO:PB:g=original	!	!	!
1G	-cer-	.	.	2d\	ma-	1g	-cer-
!	!	!LO:TX:t=P:problem=kreska pseudotaktowa	!	!	!	!	!
.	.	2B/	.	1g	.	.	.
*	*	*lig	*	*	*	*	*
!LO:TX:t=P:problem=oddech ołówkiem	!	!	!	!	!	!	!
1A,	-dos	1c	.	.	.	2c/	-dos
.	.	.	.	2f\	.	1cc\	ma-
=13-	=13-	=13-	=13-	=13-	=13-	=13-	=13-
*custos:C	*	*	*	*	*	*	*
!LO:TX:t=P:problem=kreska pseudotaktowa	!	!	!	!	!	!	!
!	!	!	!	!LO:TX:t=P:problem=kreska pseudotaktowa	!	!	!
1G	ma-	1d	.	0.g	-gnus	.	.
!	!	!	!	!	!	!LO:TX:t=P:problem=kreska pseudotaktowa	!
.	.	.	.	.	.	2b\	.
*	*	*Xlig	*	*	*	*	*
!LO:LB:g=original	!	!	!	!	!	!LO:TX:t=P:problem=kreska pseudotaktowa	!
2C/	-gnus	2c,</	-gn(us)	.	.	0cc	-gnus
*	*	*	*Xij	*	*	*	*Xij
!LO:TX:t=P:problem=oddech ołówkiem	!	!LO:TX:t=P:problem=oddech ołówkiem	!	!	!	!	!
!LO:TX:t=P:problem=kreska pseudotaktowa	!	!LO:TX:t=P:problem=kreska pseudotaktowa	!	!	!	!	!
2c,\	qui	2e,\	qui	.	.	.	.
=14-	=14-	=14-	=14-	=14-	=14-	=14-	=14-
2c\	in	2e\	in	.	.	.	.
!LO:TX:t=P:problem=kreska pseudotaktowa	!	!	!	!	!	!	!
2c\	di-	2e\	di-	.	.	.	.
2A\	-e-	2c/	-e-	1r	.	2r	.
!LO:TX:t=P:problem=kreska pseudotaktowa	!	!LO:TX:t=P:problem=oddech ołówkiem	!	!	!	!	!
!LO:TX:t=P:problem=oddech ołówkiem	!	!LO:TX:t=P:problem=kreska pseudotaktowa	!	!	!	!LO:TX:t=P:problem=kreska pseudotaktowa	!
2B,\	-bus	2d\	-bus	.	.	2g\	qui
=15-	=15-	=15-	=15-	=15-	=15-	=15-	=15-
2.c\	Su-	2.e\	Su-	2r	.	2g\	in
!	!	!	!	!LO:TX:t=P:problem=kreska pseudotaktowa	!	!	!
.	.	.	.	2g\	qui	2cc\	di-
8B\L	.	8d\L	.	.	.	.	.
8A\J	.	8c\J	.	.	.	.	.
!LO:TX:t=P:problem=oddech ołówkiem	!	!	!	!	!	!	!
!LO:TX:t=P:problem=kreska pseudotaktowa	!	!LO:TX:t=P:problem=oddech ołówkiem	!	!	!	!	!
1G,	.	1d	.	2g\	in	2cc\	-e-
*	*	*	*	*	*	*custos:a	*
!	!	!	!	!	!	!LO:TX:t=P:problem=kreska pseudotaktowa	!
!	!	!	!	!LO:TX:t=P:problem=kreska pseudotaktowa	!	!	!
.	.	.	.	2g\	di-	2b\	-bus
=16-	=16-	=16-	=16-	=16-	=16-	=16-	=16-
*	*	*	*	*	*	*lig	*
!	!	!LO:TX:t=P:problem=kreska pseudotaktowa	!	!	!	!	!
!	!	!	!	!	!	!LO:PB:g=original	!
1A	.	1c	-is	2e\	-e-	1a	Su-
.	.	.	.	2f\	-bus	.	.
*	*	*	*	*	*	*col	*
!LO:TX:t=P:problem=oddech ołówkiem	!	!	!	!	!	!	!
!LO:TX:t=P:problem=kreska pseudotaktowa	!	!	!	!	!	!	!
1G,	-is	2r	.	2.g\	Su-	2.b\	.
*	*	*	*ij	*	*	*	*
.	.	2d,\	qui	.	.	.	.
!	!	!LO:TX:t=P:problem=oddech ołówkiem	!	!	!	!	!
*	*	*	*	*	*	*Xlig	*
.	.	.	.	8f\L	.	8a\L	.
*	*	*	*	*	*	*Xcol	*
!	!	!	!	!LO:TX:t=P:problem=kreska pseudotaktowa	!	!LO:TX:t=P:problem=kreska pseudotaktowa	!
.	.	.	.	8e\J	.	8g\J	.
=17-	=17-	=17-	=17-	=17-	=17-	=17-	=17-
2r	.	2d\	in	2f\	.	2a\	.
!LO:TX:t=P:problem=kreska pseudotaktowa	!	!LO:TX:t=P:problem=kreska pseudotaktowa	!	!	!	!	!
2G\	qui	2d\	di-	2g\	-is	2b\	.
*	*	*	*	*	*ij	*	*
!	!	!	!	!	!	!LO:TX:t=P:problem=kreska pseudotaktowa	!
2G\	in	2B/	-e-	2d\	qui	1g	-is
!LO:TX:t=P:problem=oddech ołówkiem	!	!LO:TX:t=P:problem=oddech ołówkiem	!	!LO:TX:t=P:problem=kreska pseudotaktowa	!	!	!
!LO:TX:t=P:problem=kreska pseudotaktowa	!	!	!	!	!	!	!
2E,/	di-	2c,/	-bus	2e\	in	.	.
=18-	=18-	=18-	=18-	=18-	=18-	=18-	=18-
2F/	-e-	2d\	Su-	2A/	di-	2r	.
*	*	*	*	*	*	*	*ij
!LO:TX:t=P:problem=kreska pseudotaktowa	!	!	!	!	!	!	!
2G\	-bus	2.e\	.	2B/	.	2g\	qui
!LO:TX:t=P:problem=oddech ołówkiem	!	!	!	!	!	!	!
1A,	Su-	.	.	2c/	-e-	2g\	in
.	.	4d\	.	.	.	.	.
!	!	!LO:TX:t=P:problem=oddech ołówkiem	!	!LO:TX:t=P:problem=kreska pseudotaktowa	!	!LO:TX:t=P:problem=kreska pseudotaktowa	!
.	.	1c\	.	2c/	-bus	2f\	di-
=19-	=19-	=19-	=19-	=19-	=19-	=19-	=19-
!LO:TX:t=P:problem=kreska pseudotaktowa	!	!	!	!	!	!	!
1G	-is	.	.	1d	Su-	2.g\	-e-
!	!	!LO:TX:t=P:problem=kreska pseudotaktowa	!	!	!	!	!
.	.	2B/	.	.	.	.	.
.	.	.	.	.	.	4f\	.
!	!	!LO:TX:t=P:problem=oddech ołówkiem	!	!	!	!	!
2r	.	1c,	-is	2c/	-is	4e/	.
*	*	*	*Xij	*	*Xij	*	*
.	.	.	.	.	.	4d/	.
*	*ij	*	*	*	*	*	*
!LO:TX:t=P:problem=oddech ołówkiem	!	!	!	!LO:TX:t=P:problem=kreska pseudotaktowa	!	!	!
2C,/	qui	.	.	2G/	qui	1e\	-bus
=20-	=20-	=20-	=20-	=20-	=20-	=20-	=20-
2C/	in	2r	.	2G/	in	.	.
*	*	*custos:g	*	*	*	*	*
!	!	!LO:TX:t=P:problem=kreska pseudotaktowa	!	!	!	!	!
!LO:TX:t=P:problem=kreska pseudotaktowa	!	!	!	!	!	!	!
2C/	di-	2g\	qui	2c/	di-	4d/	.
!	!	!	!	!	!	!LO:TX:t=P:problem=kreska pseudotaktowa	!
.	.	.	.	.	.	4c/	.
!	!	!LO:PB:g=original	!	!	!	!	!
2G\	-e-	2g\	in	2c/	-e-	1d	Su-
!LO:TX:t=P:problem=kreska pseudotaktowa	!	!	!	!	!	!	!
!LO:TX:t=P:problem=oddech ołówkiem	!	!LO:TX:t=P:problem=oddech ołówkiem	!	!LO:TX:t=P:problem=kreska pseudotaktowa	!	!	!
2G,\	-bus	2g,\	di-	2B/	-bus	.	.
=21-	=21-	=21-	=21-	=21-	=21-	=21-	=21-
*	*	*	*	*lig	*	*	*
!	!	!	!	!	!	!LO:TX:t=P:problem=kreska pseudotaktowa	!
1A	Su-	2e\	-e-	1c	Su-	1c	-is
*	*	*	*	*	*	*	*Xij
!	!	!LO:TX:t=P:problem=kreska pseudotaktowa	!	!	!	!	!
.	.	2f\	-bus	.	.	.	.
!LO:TX:t=P:problem=oddech ołówkiem	!	!	!	!	!	!	!
!LO:TX:t=P:problem=kreska pseudotaktowa	!	!	!	!	!	!	!
1G,	-is	2.g\	Su-	1d	.	2r	.
.	.	.	.	.	.	2g\	qui
.	.	4f\	.	.	.	.	.
!	!	!LO:TX:t=P:problem=oddech ołówkiem	!	!	!	!	!
*	*	*	*	*Xlig	*	*	*
=22-	=22-	=22-	=22-	=22-	=22-	=22-	=22-
*	*	*	*	*custos:g	*	*	*
!	!	!	!	!LO:TX:t=P:problem=kreska pseudotaktowa	!	!	!
!LO:TX:t=P:problem=oddech ołówkiem	!	!	!	!	!	!	!
0r	.	4e\	.	1c	-is	2g\	in
.	.	4d\	.	.	.	.	.
!	!	!	!	!	!	!LO:TX:t=P:problem=kreska pseudotaktowa	!
.	.	1e	.	.	.	2g\	di-
!	!	!	!	!LO:TX:t=P:problem=kreska pseudotaktowa	!	!	!
!	!	!	!	!LO:LB:g=original	!	!	!
.	.	.	.	1r	.	2e/	-e-
!	!	!LO:TX:t=P:problem=oddech ołówkiem	!	!	!	!	!
.	.	2d,\	-is	.	.	2f\	-bus
=23-	=23-	=23-	=23-	=23-	=23-	=23-	=23-
!	!	!LO:TX:t=P:problem=kreska pseudotaktowa	!	!	!	!	!
2r	.	1e	.	2r	.	2.g\	Su-
*	*	*	*	*	*ij	*	*
!LO:TX:t=P:problem=kreska pseudotaktowa	!	!	!	!	!	!	!
2c\	qui	.	.	2g\	qui	.	.
.	.	.	.	.	.	4f\	.
2c\	in	2r	.	2g\	in	4e/	.
.	.	.	.	.	.	4d/	.
*	*	*	*ij	*	*	*	*
*custos:A	*	*	*	*	*	*	*
!LO:TX:t=P:problem=oddech ołówkiem	!	!	!	!	!	!	!
!LO:TX:t=P:problem=kreska pseudotaktowa	!	!LO:TX:t=P:problem=oddech ołówkiem	!	!	!	!	!
!	!	!LO:TX:t=P:problem=kreska pseudotaktowa	!	!LO:TX:t=P:problem=kreska pseudotaktowa	!	!	!
2c,\	di-	2c/	qui	2e\	di-	1e\	.
=24-	=24-	=24-	=24-	=24-	=24-	=24-	=24-
!LO:PB:g=original	!	!	!	!	!	!	!
2A\	-e-	2c/	in	2f\	-e-	.	.
!	!	!	!	!	!	!LO:TX:t=P:problem=kreska pseudotaktowa	!
2B\	-bus	2.d\	di-	2f\	-bus	2d/	.
!	!	!	!	!LO:TX:t=P:problem=kreska pseudotaktowa	!	!	!
2.c\	Su-	.	.	1e	Su-	2e,</	-is
.	.	4c/	.	.	.	.	.
*	*	*	*	*	*	*	*ij
!	!	!LO:TX:t=P:problem=oddech ołówkiem	!	!	!	!	!
.	.	1c\	-e-	.	.	2g\	qui
8B\L	.	.	.	.	.	.	.
!LO:TX:t=P:problem=oddech ołówkiem	!	!	!	!	!	!	!
8A,\J	.	.	.	.	.	.	.
=25-	=25-	=25-	=25-	=25-	=25-	=25-	=25-
1G	.	.	.	2d,<\	-is	1.g	in
*	*	*	*	*	*Xij	*	*
!	!	!LO:TX:t=P:problem=kreska pseudotaktowa	!	!	!	!	!
.	.	2B/	.	2d\	qui	.	.
!LO:TX:t=P:problem=oddech ołówkiem	!	!	!	!	!	!	!
!LO:TX:t=P:problem=kreska pseudotaktowa	!	!	!	!	!	!	!
1C,	-is	2.c/	-bus-	2e\	in	.	.
*	*Xij	*	*	*	*	*	*
!	!	!	!	!LO:TX:t=P:problem=kreska pseudotaktowa	!	!LO:TX:t=P:problem=kreska pseudotaktowa	!
.	.	.	.	2e\	di-	2g\	di-
!	!	!LO:TX:t=P:problem=oddech ołówkiem	!	!	!	!	!
.	.	4B/	.	.	.	.	.
=26-	=26-	=26-	=26-	=26-	=26-	=26-	=26-
!LO:TX:a:t=4	!	!	!	!	!	!	!
0r	.	1A	-Su-	1c	-e-	2a\	-e-
.	.	.	.	.	.	1cc	.
*	*	*lig	*	*	*	*	*
!	!	!LO:TX:t=P:problem=oddech ołówkiem	!	!	!	!	!
.	.	1G	.	2d\	-bus	.	.
*	*	*	*	*	*	*custos:a	*
!	!	!	!	!	!	!LO:TX:t=P:problem=kreska pseudotaktowa	!
.	.	.	.	2.g\	Su-	2b\	-bus
=27-	=27-	=27-	=27-	=27-	=27-	=27-	=27-
!LO:TX:t=P:problem=kreska pseudotaktowa	!	!	!	!	!	!	!
!	!	!	!	!	!	!LO:LB:g=original	!
0r	.	1d	.	.	.	1a	Su-
.	.	.	.	8f\L	.	.	.
.	.	.	.	8e\J	.	.	.
!	!	!	!	!LO:TX:t=P:problem=kreska pseudotaktowa	!	!	!
.	.	.	.	2f#X\	.	.	.
*	*	*Xlig	*	*	*	*	*
!	!	!LO:TX:t=P:problem=kreska pseudotaktowa	!	!LO:TX:t=P:problem=kreska pseudotaktowa	!	!LO:TX:t=P:problem=kreska pseudotaktowa	!
.	.	1G,<	-is	1g,<	-is	1b,<	-is
*	*	*	*Xij	*	*	*	*Xij
=28-	=28-	=28-	=28-	=28-	=28-	=28-	=28-
1.C	pla-	1.c	pla-	1.e	pla-	1.g	pla-
!LO:TX:t=P:problem=oddech ołówkiem	!	!LO:TX:t=P:problem=oddech ołówkiem	!	!	!	!	!
2C,/	-cu-	2c/	-cu-	2e\	-cu-	2g\	-cu-
=29-	=29-	=29-	=29-	=29-	=29-	=29-	=29-
!LO:TX:t=P:problem=kreska pseudotaktowa	!	!LO:TX:t=P:problem=kreska pseudotaktowa	!	!LO:TX:t=P:problem=kreska pseudotaktowa	!	!LO:TX:t=P:problem=kreska pseudotaktowa	!
1C	-it	1c	-it	1e	-it	1g	-it
!LO:TX:t=P:problem=oddech ołówkiem	!	!LO:TX:t=P:problem=oddech ołówkiem	!	!	!	!	!
1F,	De-	1c,	De-	1fny	De-	1a	De-
=30-	=30-	=30-	=30-	=30-	=30-	=30-	=30-
!LO:TX:t=P:problem=kreska pseudotaktowa	!	!	!	!	!	!LO:TX:t=P:problem=kreska pseudotaktowa	!
1C	-o	2c/	-o	2e\	-o	1g	-o
!	!	!LO:TX:t=P:problem=kreska pseudotaktowa	!	!LO:TX:t=P:problem=kreska pseudotaktowa	!	!	!
.	.	2G/	et	2g\	et	.	.
0r	.	2A/	in-	2f\	in-	1r	.
.	.	1c\	-uen-	1e\	-uen-	.	.
=31-	=31-	=31-	=31-	=31-	=31-	=31-	=31-
!	!	!LO:TX:t=P:problem=oddech ołówkiem	!	!	!	!	!
.	.	.	.	.	.	2r	.
*	*	*custos:c	*	*	*	*	*
!	!	!LO:TX:t=P:problem=kreska pseudotaktowa	!	!	!	!	!
!	!	!	!	!LO:TX:t=P:problem=kreska pseudotaktowa	!	!LO:TX:t=P:problem=kreska pseudotaktowa	!
.	.	2B/	-tur	2d\	-tur	2d/	et
!	!	!LO:TX:t=P:problem=oddech ołówkiem	!	!	!	!	!
!	!	!LO:LB:g=original	!	!	!	!	!
0r	.	1c,	eſt	2c/	est	2e/	in-
.	.	.	.	1e\	iu-	1g\	-uen-
=32-	=32-	=32-	=32-	=32-	=32-	=32-	=32-
!LO:TX:t=P:problem=oddech ołówkiem	!	!	!	!	!	!	!
.	.	1A	iu-	.	.	.	.
.	.	.	.	4d\	.	2f\	-tur
!	!	!	!	!LO:TX:t=P:problem=kreska pseudotaktowa	!	!	!
.	.	.	.	4c/	.	.	.
!	!	!LO:TX:t=P:problem=oddech ołówkiem	!	!	!	!	!
!	!	!LO:TX:t=P:problem=kreska pseudotaktowa	!	!	!	!LO:TX:t=P:problem=kreska pseudotaktowa	!
2r	.	1G,	-ſtus	1d	.	1g	eſt
!LO:TX:t=P:problem=oddech ołówkiem	!	!	!	!	!	!	!
!LO:TX:t=P:problem=kreska pseudotaktowa	!	!	!	!	!	!	!
2G,\	et	.	.	.	.	.	.
=33-	=33-	=33-	=33-	=33-	=33-	=33-	=33-
*	*	*	*	*custos:d	*	*	*
!	!	!	!	!LO:TX:t=P:problem=kreska pseudotaktowa	!	!	!
!	!	!LO:TX:t=P:problem=kreska pseudotaktowa	!	!	!	!	!
2A\	in-	1r	.	1c	-ſtus	1e	iu-
1c	-uen-	.	.	.	.	.	.
!	!	!	!	!	!	!LO:TX:t=P:problem=kreska pseudotaktowa	!
!	!	!	!	!LO:LB:g=original	!	!	!
.	.	2.g\	et	2r	.	1d	-ſtus
!LO:TX:t=P:problem=oddech ołówkiem	!	!	!	!	!	!	!
!LO:TX:t=P:problem=kreska pseudotaktowa	!	!	!	!LO:TX:t=P:problem=kreska pseudotaktowa	!	!	!
2B,\	-tur	.	.	2d\	et	.	.
!	!	!LO:TX:t=P:problem=oddech ołówkiem	!	!	!	!	!
.	.	4g\	in	.	.	.	.
=34-	=34-	=34-	=34-	=34-	=34-	=34-	=34-
1c	est	2e\	tem-	2e\	in-	0r	.
!	!	!LO:TX:t=P:problem=kreska pseudotaktowa	!	!	!	!	!
.	.	2e\	-po-	1g	-uen-	.	.
!LO:TX:t=P:problem=oddech ołówkiem	!	!	!	!	!	!	!
1A,	iu-	2c,/	-re	.	.	.	.
!	!	!LO:TX:t=P:problem=oddech ołówkiem	!	!	!	!	!
!	!	!LO:TX:t=P:problem=kreska pseudotaktowa	!	!LO:TX:t=P:problem=kreska pseudotaktowa	!	!	!
.	.	2c/	i-	2f\	-tur	.	.
=35-	=35-	=35-	=35-	=35-	=35-	=35-	=35-
!LO:TX:t=P:problem=kreska pseudotaktowa	!	!	!	!	!	!	!
1G	-ſtus	2e\	-ra-	1g	e(st)	0r	.
.	.	2.d\	-cun-	.	.	.	.
!LO:TX:t=P:problem=oddech ołówkiem	!	!	!	!	!	!	!
1rF	.	.	.	1e	iu-	.	.
.	.	4c/	.	.	.	.	.
!	!	!LO:TX:t=P:problem=oddech ołówkiem	!	!	!	!	!
.	.	1c\	.	.	.	.	.
=36-	=36-	=36-	=36-	=36-	=36-	=36-	=36-
!	!	!	!	!LO:TX:t=P:problem=kreska pseudotaktowa	!	!LO:TX:t=P:problem=kreska pseudotaktowa	!
2.G\	et	.	.	1d	-ſtus	1r	.
!	!	!LO:TX:t=P:problem=kreska pseudotaktowa	!	!	!	!	!
.	.	2B/	-di-	.	.	.	.
!LO:TX:t=P:problem=kreska pseudotaktowa	!	!	!	!	!	!	!
4G\	in	.	.	.	.	.	.
2E/	tem-	2c,</	-ae	1r	.	2.g\	et
*	*	*	*ij	*	*	*	*
!LO:TX:t=P:problem=oddech ołówkiem	!	!	!	!	!	!	!
!LO:TX:t=P:problem=kreska pseudotaktowa	!	!LO:TX:t=P:problem=oddech ołówkiem	!	!	!	!	!
2E,/	-po-	2G,/	et	.	.	.	.
.	.	.	.	.	.	4g\	in
=37-	=37-	=37-	=37-	=37-	=37-	=37-	=37-
2C/	-re	2G/	in	2.g\	et	2e/	tem-
!	!	!	!	!	!	!LO:TX:t=P:problem=kreska pseudotaktowa	!
1C	i-	2.c/	tem-	.	.	2e/	-po-
!	!	!	!	!LO:TX:t=P:problem=kreska pseudotaktowa	!	!	!
.	.	.	.	4g\	in	.	.
.	.	.	.	2e\	tem-	2c/	-re
.	.	4G/	-po-	.	.	.	.
!	!	!LO:TX:t=P:problem=oddech ołówkiem	!	!	!	!	!
!LO:TX:t=P:problem=oddech ołówkiem	!	!LO:TX:t=P:problem=kreska pseudotaktowa	!	!	!	!	!
2C,/	-ra-	2G,/	-re	2e\	-po-	2.cc\	i-
=38-	=38-	=38-	=38-	=38-	=38-	=38-	=38-
2.F/	-cun-	2A/	i-	2c/	-re	.	.
.	.	.	.	.	.	4b\	.
!	!	!	!	!LO:TX:t=P:problem=kreska pseudotaktowa	!	!	!
.	.	2A/	-ra-	2c/	i-	1a	-ra-
*custos:D	*	*	*	*	*	*	*
!LO:TX:t=P:problem=kreska pseudotaktowa	!	!	!	!	!	!	!
4E/	.	.	.	.	.	.	.
!LO:LB:g=original	!	!	!	!	!	!	!
2D/	.	2.d\	-cun-	1f	-ra-	.	.
!LO:TX:t=P:problem=oddech ołówkiem	!	!	!	!	!	!LO:TX:t=P:problem=kreska pseudotaktowa	!
2D,/	-di-	.	.	.	.	2f\	.
!	!	!LO:TX:t=P:problem=oddech ołówkiem	!	!	!	!	!
!	!	!LO:TX:t=P:problem=kreska pseudotaktowa	!	!	!	!	!
.	.	4d\	-di-	.	.	.	.
=39-	=39-	=39-	=39-	=39-	=39-	=39-	=39-
*	*	*	*	*	*	*lig	*
!LO:TX:t=P:problem=kreska pseudotaktowa	!	!	!	!	!	!	!
1C	-ae	2G,</	-ae	2.e\	-cun-	1g	-cun-
*	*	*	*Xij	*	*	*	*
.	.	1g	et	.	.	.	.
!	!	!	!	!LO:TX:t=P:problem=kreska pseudotaktowa	!	!	!
.	.	.	.	4e\	-di-	.	.
*	*	*	*	*	*	*col	*
!LO:TX:t=P:problem=oddech ołówkiem	!	!	!	!LO:TX:t=P:problem=kreska pseudotaktowa	!	!	!
1rF	.	.	.	1d	-ae	2.a\	.
*	*	*	*	*	*	*Xlig	*
!	!	!LO:TX:t=P:problem=oddech ołówkiem	!	!	!	!	!
!	!	!LO:TX:t=P:problem=kreska pseudotaktowa	!	!	!	!	!
.	.	2f,\	in	.	.	.	.
.	.	.	.	.	.	4a\	-di-
*	*	*	*	*	*	*Xcol	*
=40-	=40-	=40-	=40-	=40-	=40-	=40-	=40-
*	*ij	*	*	*	*	*	*
!	!	!	!	!	!	!LO:TX:t=P:problem=kreska pseudotaktowa	!
2.c\	et	2e\	tem-	2r	.	1g,<	-ae
*	*	*	*	*	*ij	*	*
!	!	!	!	!LO:TX:t=P:problem=kreska pseudotaktowa	!	!	!
.	.	2e\	-po-	2g\	et	.	.
!LO:TX:t=P:problem=kreska pseudotaktowa	!	!	!	!	!	!	!
4c\	in	.	.	.	.	.	.
*	*	*	*	*	*	*	*ij
2A\	tem-	2c/	-re	4f\	in	2.cc\	et
.	.	.	.	2e\	tem-	.	.
!LO:TX:t=P:problem=oddech ołówkiem	!	!LO:TX:t=P:problem=oddech ołówkiem	!	!	!	!	!
2A,\	-po-	1c\	i-	.	.	.	.
*	*	*	*	*	*	*custos:a	*
!	!	!	!	!	!	!LO:TX:t=P:problem=kreska pseudotaktowa	!
!	!	!	!	!LO:TX:t=P:problem=kreska pseudotaktowa	!	!	!
.	.	.	.	4e\	-po-	4cc\	in
=41-	=41-	=41-	=41-	=41-	=41-	=41-	=41-
!	!	!	!	!	!	!LO:LB:g=original	!
2F/	-re	.	.	2f\	-re	2a\	tem-
*	*	*custos:d	*	*	*	*	*
!	!	!LO:TX:t=P:problem=kreska pseudotaktowa	!	!	!	!	!
1F	i-	2c/	-ra-	1f	i-	2a\	-po-
!	!	!LO:TX:t=P:problem=oddech ołówkiem	!	!	!	!	!
!	!	!LO:LB:g=original	!	!	!	!	!
.	.	2d,\	-cun-	.	.	2f\	-re
*	*	*lig	*	*	*	*	*
!LO:TX:t=P:problem=oddech ołówkiem	!	!	!	!	!	!	!
!LO:TX:t=P:problem=kreska pseudotaktowa	!	!	!	!	!	!	!
!	!	!	!	!LO:TX:t=P:problem=kreska pseudotaktowa	!	!	!
2F,/	-ra-	1A/	.	2c/	-ra-	1a\	i-
=42-	=42-	=42-	=42-	=42-	=42-	=42-	=42-
*lig	*	*	*	*	*	*	*
1D	-cun-	.	.	1f	-cun-	.	.
!	!	!	!	!	!	!LO:TX:t=P:problem=kreska pseudotaktowa	!
.	.	1d	.	.	.	2a\	-ra-
*col	*	*	*	*	*	*	*
!	!	!	!	!LO:TX:t=P:problem=kreska pseudotaktowa	!	!	!
2.A\	.	.	.	1e	-di-	1.a	-cun-
*Xlig	*	*Xlig	*	*	*	*	*
!	!	!LO:TX:t=P:problem=oddech ołówkiem	!	!	!	!	!
!	!	!LO:TX:t=P:problem=kreska pseudotaktowa	!	!	!	!	!
.	.	2c,/	-di-	.	.	.	.
!LO:TX:t=P:problem=oddech ołówkiem	!	!	!	!	!	!	!
4A,\	-di-	.	.	.	.	.	.
*Xcol	*	*	*	*	*	*	*
=43-	=43-	=43-	=43-	=43-	=43-	=43-	=43-
!LO:TX:t=P:problem=kreska pseudotaktowa	!	!	!	!	!	!	!
1D	-(ae)	2d\	-ae	2d,<\	-ae	.	.
*	*Xij	*	*	*	*Xij	*	*
.	.	2.A/	i-	1f	fac-	2a\	-di-
!	!	!	!	!	!	!LO:TX:t=P:problem=kreska pseudotaktowa	!
0r	.	.	.	.	.	1a	-ae
*	*	*	*	*	*	*	*Xij
.	.	4B/	.	.	.	.	.
*	*	*	*	*custos:f	*	*	*
!	!	!	!	!LO:TX:t=P:problem=kreska pseudotaktowa	!	!	!
.	.	4c/	.	2e\	-tus	.	.
!	!	!LO:TX:t=P:problem=oddech ołówkiem	!	!	!	!	!
!	!	!LO:TX:t=P:problem=kreska pseudotaktowa	!	!	!	!	!
.	.	4A/	.	.	.	.	.
=44-	=44-	=44-	=44-	=44-	=44-	=44-	=44-
!	!	!	!	!LO:LB:g=original	!	!	!
.	.	2d\	.	2f\	eſt	2r	.
.	.	2d\	-ra-	2.d\	re-	1f	fac-
0r	.	2.A/	-cun-	.	.	.	.
.	.	.	.	4d\	-con-	.	.
!	!	!	!	!LO:TX:t=P:problem=kreska pseudotaktowa	!	!LO:TX:t=P:problem=kreska pseudotaktowa	!
.	.	.	.	2c/	-ci-	2e/	.
!	!	!LO:TX:t=P:problem=oddech ołówkiem	!	!	!	!	!
!	!	!LO:TX:t=P:problem=kreska pseudotaktowa	!	!	!	!	!
.	.	4G/	.	.	.	.	.
=45-	=45-	=45-	=45-	=45-	=45-	=45-	=45-
.	.	1F	.	4d\	-li-	1f	-tus
.	.	.	.	4c/	.	.	.
.	.	.	.	1c	-a-	.	.
!LO:TX:t=P:problem=oddech ołówkiem	!	!	!	!	!	!	!
!LO:TX:t=P:problem=kreska pseudotaktowa	!	!LO:TX:t=P:problem=oddech ołówkiem	!	!	!	!	!
1r	.	1G	-di-	.	.	2.d/	eſt
!	!	!	!	!LO:TX:t=P:problem=kreska pseudotaktowa	!	!	!
.	.	.	.	2B/	-ti-	.	.
!	!	!	!	!	!	!LO:TX:t=P:problem=kreska pseudotaktowa	!
.	.	.	.	.	.	4e/	.
=46-	=46-	=46-	=46-	=46-	=46-	=46-	=46-
!	!	!LO:TX:t=P:problem=kreska pseudotaktowa	!	!LO:TX:t=P:problem=kreska pseudotaktowa	!	!	!
1.F	fac-	1A	-ae	0c	-o	4f\	re-
.	.	.	.	.	.	4g\	.
.	.	.	.	.	.	1a	.
!	!	!LO:TX:t=P:problem=oddech ołówkiem	!	!	!	!	!
.	.	2r	.	.	.	.	.
!LO:TX:t=P:problem=oddech ołówkiem	!	!	!	!	!	!LO:TX:t=P:problem=kreska pseudotaktowa	!
2E,/	.	1c\	fac-	.	.	2g\	-con-
=47-	=47-	=47-	=47-	=47-	=47-	=47-	=47-
2F,</	-ctus	.	.	0r	.	2c/	-ci-
!LO:TX:t=P:problem=kreska pseudotaktowa	!	!LO:TX:t=P:problem=kreska pseudotaktowa	!	!	!	!	!
2D/	est	2B/	.	.	.	2f\	-li-
2C/	re-	2c/	-tus	.	.	2e/	-a-
!LO:TX:t=P:problem=oddech ołówkiem	!	!LO:TX:t=P:problem=oddech ołówkiem	!	!	!	!	!
2D,/	-con-	2A,/	est	.	.	2d/	-ti-
=48-	=48-	=48-	=48-	=48-	=48-	=48-	=48-
!	!	!	!	!	!	!LO:TX:t=P:problem=kreska pseudotaktowa	!
2E/	-ci-	2G/	re-	2r	.	0c	-o
*	*	*	*	*	*ij	*	*
!LO:TX:t=P:problem=kreska pseudotaktowa	!	!LO:TX:t=P::problem=kreska pseudotaktowa&colon;między nutą a kropką	!	!	!	!	!
2.F/	-li-	2.A/	-con-	1f	fac-	.	.
.	.	.	.	.	.	.	.
4E/	.	4B/	.	.	.	.	.
!LO:TX:t=P:problem=oddech ołówkiem	!	!	!	!LO:TX:t=P:problem=kreska pseudotaktowa	!	!	!
2C,/	-a-	1c\	-ci-	2e\	-tus	.	.
=49-	=49-	=49-	=49-	=49-	=49-	=49-	=49-
2.D/	.	.	.	2f\	eſt	1r	.
!	!	!LO:TX:t=P:problem=kreska pseudotaktowa	!	!	!	!	!
.	.	2B/	-li-	2d\	re-	.	.
4D/	-ti-	.	.	.	.	.	.
!LO:TX:t=P:problem=kreska pseudotaktowa	!	!	!	!	!	!	!
!LO:TX:t=P:problem=oddech ołówkiem	!	!	!	!	!	!	!
1C,	-o	2.c/	-a-	2e\	-con-	2r	.
*	*	*	*	*	*	*	*ij
.	.	.	.	1e\	-ci-	1g\	fac-
!	!	!LO:TX:t=P:problem=oddech ołówkiem	!	!	!	!	!
.	.	4B/	.	.	.	.	.
=50-	=50-	=50-	=50-	=50-	=50-	=50-	=50-
2r	.	2A/	.	.	.	.	.
!	!	!	!	!LO:TX:t=P:problem=kreska pseudotaktowa	!	!LO:TX:t=P:problem=kreska pseudotaktowa	!
1c	fac-	2A/	-ti-	2c/	-li-	2f\	-tus
!	!	!LO:TX:t=P:problem=oddech ołówkiem	!	!	!	!	!
!	!	!LO:TX:t=P:problem=kreska pseudotaktowa	!	!	!	!	!
.	.	1G	-o	2.d\	-a-	2g\	eſt
*custos:c	*	*	*	*	*	*	*
!LO:TX:t=P:problem=oddech ołówkiem	!	!	!	!	!	!	!
!LO:TX:t=P:problem=kreska pseudotaktowa	!	!	!	!	!	!	!
2B,\	-t(us)	.	.	.	.	2d/	re-
.	.	.	.	4d\	-ti-	.	.
=51-	=51-	=51-	=51-	=51-	=51-	=51-	=51-
!LO:LB:g=original	!	!LO:TX:t=P:problem=oddech ołówkiem	!	!LO:TX:t=P:problem=kreska pseudotaktowa	!	!	!
2c\	e(st)	0r	.	1c	-o	2e/	-con-
*	*	*	*	*	*Xij	*	*
!LO:TX:t=P:problem=kreska pseudotaktowa	!	!	!	!	!	!LO:TX:t=P:problem=kreska pseudotaktowa	!
2A\	re-	.	.	.	.	2f\	-ci-
2B\	-con-	.	.	2r	.	2d/	-li-
*	*	*	*	*	*	*custos:e	*
1c\	-ci-	.	.	2g\	fac-	[2e/	-a-
=52-	=52-	=52-	=52-	=52-	=52-	=52-	=52-
!	!	!LO:TX:t=P:problem=kreska pseudotaktowa	!	!	!	!LO:TX:t=P:problem=brak zakończenia ligatury	!
!	!	!	!	!	!	!LO:LB:g=original	!
.	.	1r	.	2c/	-tus	4e/]	.
.	.	.	.	.	.	4f\	.
!	!	!	!	!LO:TX:t=P:problem=kreska pseudotaktowa	!	!	!
2B\	-li-	.	.	2d\	eſt	1g	.
2.A\	-a-	2r	.	2e\	re-	.	.
*	*	*	*ij	*	*	*	*
.	.	1c\	fac-	2c/	-con-	2f\	-ti-
!LO:TX:t=P:problem=oddech ołówkiem	!	!	!	!	!	!	!
4A,\	-ti-	.	.	.	.	.	.
=53-	=53-	=53-	=53-	=53-	=53-	=53-	=53-
!LO:TX:t=P:problem=kreska pseudotaktowa	!	!	!	!	!	!LO:TX:t=P:problem=kreska pseudotaktowa	!
1G	-o	.	.	2.d\	-ci-	1g	-o
*	*	*	*	*	*	*	*Xij
*	*	*custos:c	*	*	*	*	*
!	!	!LO:TX:t=P:problem=kreska pseudotaktowa	!	!	!	!	!
.	.	2B/	-tus	.	.	.	.
!	!	!	!	!LO:TX:t=P:problem=kreska pseudotaktowa	!	!	!
.	.	.	.	4d\	-li-	.	.
!	!	!LO:LB:g=original	!	!	!	!	!
2r	.	2c/	est	2e\	-a-	1r	.
*	*ij	*	*	*	*	*	*
!LO:TX:t=P:problem=oddech ołówkiem	!	!	!	!LO:TX:t=P:problem=kreska pseudotaktowa	!	!	!
2F,/	fac-	2A/	re-	2f\	-ti-	.	.
=54-	=54-	=54-	=54-	=54-	=54-	=54-	=54-
2G\	-t(us)	2B/	-con-	2d,<\	-o	2r	.
*	*	*	*	*	*ij	*	*
!LO:TX:t=P:problem=kreska pseudotaktowa	!	!LO:TX:t=P:problem=kreska pseudotaktowa	!	!	!	!	!
2A\	e(st)	2c/	-ci-	1a	fac-	1cc	fac-
!	!	!LO:TX:t=P:problem=oddech ołówkiem	!	!	!	!	!
2F/	re-	1d	-li-	.	.	.	.
!LO:TX:t=P:problem=oddech ołówkiem	!	!	!	!	!	!LO:TX:t=P:problem=kreska pseudotaktowa	!
2G,/	-con-	.	.	4g\	-tus	2b\	-t(us)
*	*	*	*	*custos:e	*	*	*
!	!	!	!	!LO:TX:t=P:problem=kreska pseudotaktowa	!	!	!
.	.	.	.	4f\	.	.	.
=55-	=55-	=55-	=55-	=55-	=55-	=55-	=55-
!	!	!	!	!LO:LB:g=original	!	!	!
2A\	-ci-	2.c/	-a-	2e\	eſt	2cc\	e(st)
!	!	!	!	!LO:TX:t=P:problem=kreska pseudotaktowa	!	!	!
2A\	-li-	.	.	2f\	.	1a	re-
!	!	!LO:TX:t=P:problem=kreska pseudotaktowa	!	!	!	!	!
.	.	4c/	-ti-	.	.	.	.
2.B-X\	-a-	2d\	-o	1d	re-	.	.
*	*	*	*Xij	*	*	*	*
!	!	!LO:TX:t=P:problem=oddech ołówkiem	!	!	!	!LO:TX:t=P:problem=kreska pseudotaktowa	!
.	.	2d\	fac-	.	.	2g\	-con-
!LO:TX:t=P:problem=oddech ołówkiem	!	!	!	!	!	!	!
!LO:TX:t=P:problem=kreska pseudotaktowa	!	!	!	!	!	!	!
4B-y,\	-ti-	.	.	.	.	.	.
=56-	=56-	=56-	=56-	=56-	=56-	=56-	=56-
2A,\	-o	2c/	-t(us)	2e\	-con-	2a\	-ci-
!	!	!LO:TX:t=P:problem=kreska pseudotaktowa	!	!LO:TX:t=P:problem=kreska pseudotaktowa	!	!	!
2F/	fac-	2A/	e(st)	2a\	.	2cc\	-li-
2G\	-t(us)	2B/	re-	2g\	-ci-	2b\	-a-
!LO:TX:t=P:problem=oddech ołówkiem	!	!	!	!	!	!	!
!LO:TX:t=P:problem=kreska pseudotaktowa	!	!	!	!LO:TX:t=P:problem=kreska pseudotaktowa	!	!LO:TX:t=P::problem=kreska pseudotaktowa&colon;między nutą a kropką	!
2A,\	e(st)	1c\	-con-	2e\	.	2.a\	.
=57-	=57-	=57-	=57-	=57-	=57-	=57-	=57-
2F/	re-	.	.	4f\	-li-	.	.
.	.	.	.	4e\	.	4g\	.
!	!	!LO:TX:t=P:problem=kreska pseudotaktowa	!	!	!	!	!
2G\	-con-	2B/	-ci-	4d\	.	1g	.
!	!	!	!	!LO:TX:t=P:problem=kreska pseudotaktowa	!	!	!
.	.	.	.	4c/	.	.	.
!LO:TX:t=P:problem=oddech ołówkiem	!	!LO:TX:t=P:problem=oddech ołówkiem	!	!	!	!	!
1D,	-ci-	1A	-li-	1.d	.	.	.
!	!	!	!	!	!	!LO:TX:t=P:problem=kreska pseudotaktowa	!
.	.	.	.	.	.	2f\	.
=58-	=58-	=58-	=58-	=58-	=58-	=58-	=58-
*	*	*lig	*	*	*	*	*
2G\	-li-	1G	-a-	.	.	0g	-ti-
1C	-a-	.	.	1e	-a-	.	.
!	!	!LO:TX:t=P:problem=oddech ołówkiem	!	!	!	!	!
.	.	1.c	.	.	.	.	.
!LO:TX:t=P:problem=oddech ołówkiem	!	!	!	!LO:TX:t=P:problem=kreska pseudotaktowa	!	!	!
2C,/	-ti-	.	.	2e\	-ti-	.	.
*	*	*Xlig	*	*	*	*	*
=59-	=59-	=59-	=59-	=59-	=59-	=59-	=59-
!	!	!LO:TX:t=P:problem=oddech ołówkiem	!	!	!	!	!
0G	-o	.	.	0d	-o	0g	-o
*	*Xij	*	*	*	*Xij	*	*
.	.	2B/	-ti-	.	.	.	.
!	!	!LO:N:vis=0	!	!	!	!	!
.	.	1B	-o.	.	.	.	.
!LO:LB:g=original	!	!LO:LB:g=original	!	!LO:LB:g=original	!	!LO:LB:g=original	!
=||	=||	=||	=||	=||	=||	=||	=||
*-	*-	*-	*-	*-	*-	*-	*-
!!!system-decoration: [(s1,s2,s3,s4)]
!!!AIN: 1 alto 1 bass 1 soprn 1 tenor
!!!ENC: Marta Chmielewska
!!!END: 2021-03-18
!!!RDF**kern: < = below
!!!RDF**kern: > = above
!!!ENC: Andrzej Borzym
!!!END: 2021-03-02
